X: 20303
T: John Brady's
R: polka
M: 2/4
K: Gmajor
G2 B/A/G|AG ED|G2 Bd|e/f/g d2|
d/e/f/g/ dB|AG AB|DG B/A/G/A/|1 BG GD:|2 BG G>B||
dB gB|dB g>B|dB g/f/g/a/|bg g2|
f/g/f/e/ dB|AG AB|DG B/A/G/A/|1 BG G>B:|2 BG GD||

